X:1
T:Title
%%score { ( 1 2 ) | ( 3 4 ) }
L:1/8
Q:1/4=100
M:6/8
K:D
V:1 treble nm="Grand Piano"
V:2 treble 
V:3 bass 
V:4 bass 
V:1
 [FA]2 [FA] Bc[=Fd] | [FA]3 .[DF]3 | [FA]2 [EG] [EG]F[A,CE] | [A,DF]6 | [DFA]2 [DFA] G-[Gc][Gd] | %5
w: J.~W.~Bischoff * * * *|||||
 d3 .A3 | [CEA]2 [CEA] [E^Gc]2 [DGB] |[M:5/8] [CA]-[CA]- [CA]3 |[M:1/8] A |[M:3/4] e3 c2 A | %10
w: |||||
 [FA]3 .[Fd]3 | d2 de dB | [GB] [FA]3 z [DF] | .[CG]2 [CG].[CG] z [CG] | %14
w: ||||
 .[DF]2 [Fd].[DFA] z [A,DF] | .[B,EG]2 [B,EG].[DF] z [A,CE] | [DF]6 | %17
w: |||
 .[A,CG]2 [A,CG].[A,CG] z [A,CG] |[M:7/8] .[A,DF] z [Fd] [FA]3 [FA] |[M:3/4] [GB]2 [GB]c B[Gc] | %20
w: |||
 [Fd]6 |] %21
w: |
V:2
 z3 .=F3 | x6 | x6 | x6 | z3 .[DB]3 | F6 | x6 |[M:5/8] x5 |[M:1/8] x |[M:3/4] x6 | x6 | x6 | x6 | %13
 x6 | x6 | x6 | A,2 z2 z [A,DF] | x6 |[M:7/8] x7 |[M:3/4] x6 | x6 |] %21
V:3
 [D,A,]2 [D,A,] [D,^G,]2 [D,G,] | [D,A,]6 | [A,,A,]2 [A,,A,] z DA,, | D,6 | D,2 D, z C[D,B,] | %5
 A,3 .D3 | E,2 E, E,2 E, |[M:5/8] A,-A,- A,3 |[M:1/8] A, | %9
[M:3/4][K:treble] [A,CG]3 [A,EG]2 [A,CG] | [D,D]3 .[D,A,]3 | [G,B,G]2 [G,B,G] [G,B,G]2 [G,DG] | %12
 [D,D] [D,D]3 z [D,A,] | .[A,,A,]2 [E,A,].[C,A,] z [A,,A,] | .[D,A,]2 [D,A,].D, z D, | %15
 .G,2 E, A,2 A,, | z2 A,4 | .A,,2 E,.C, z A,, |[M:7/8] .D, z [D,A,] [D,D]3 [D,D] | %19
[M:3/4] [G,D]2 [E,E] [A,EG]2 [A,,A,] | [D,A,]6 |] %21
V:4
 x6 | x6 | z3 .[A,,A,]3 | x6 | z3 .D,3 | D,6 | x6 |[M:5/8] x5 |[M:1/8] x |[M:3/4][K:treble] x6 | %10
 x6 | x6 | x6 | x6 | x6 | x6 | D,2 z F,2 D, | x6 |[M:7/8] x7 |[M:3/4] x6 | x6 |] %21

